!!!!SEGMENT: pl-wtm--r-730-21-m_moniuszko-stanislaw--niepewnosc.krn
!!!cenid: 18xx:1701
!!!COM: Moniuszko, Stanisław
!!!COM-rismid: pe30008351
!!!CDT: 1819/05/05-1872/06/04
!!!CNT: Polish
!!!OTL: Niepewność
!!!PDT:
!!!AGN: Secular
!!!SMS-siglum: PL-Wtm
!!!SMS-shelfmark: R 730/21/M
!!!SMS-shelfwork: W
!!!SMS-variant:
!!!SMS-altvar:
!!!NIFC-rismid: 1001099833
!!!URL-scan: http://repozytorium.nifc.pl/skany/pl-wtm-nut--r730m-1-43
!!!ONB-nifc: Skan 0024, No. 773
**kern	**kern	**dynam	**kern	**text	**text
*part2	*part2	*part2	*part1	*part1	*part1
*staff3	*staff2	*	*staff1	*staff1	*staff1
*I"Fortepian	*I"Fortepian	*	*I"[Voice]	*	*
*I'pf	*I'pf	*	*I'[V]	*	*
*clefF4	*clefG2	*	*clefG2	*	*
*k[f#c#]	*k[f#c#]	*	*k[f#c#]	*	*
*D:	*D:	*	*D:	*	*
*M4/4	*M4/4	*	*M4/4	*	*
*met(c)	*met(c)	*	*met(c)	*	*
=1	=1	=1	=1	=1	=1
*clefG2	*	*	*	*	*
!	!LO:TX:t=P:problem:all\right:global	!	!	!	!
!	!	!	!LO:TX:a:i:t=Niepewność.	!	!
4d/	4ff# 4dd^>\	.	1r	.	.
8d/L	8ff#L 8dd\	.	.	.	.
8d/J	8ff#J 8dd\	.	.	.	.
8g#X/L	8bbL 8ee#X 8dd\	.	.	.	.
8g#/J	8bbJ 8ee# 8dd\	.	.	.	.
8r	8r	.	.	.	.
8g#/	8bb 8ee# 8dd\	.	.	.	.
!LO:TX:t=[segno]	!LO:TX:t=[segno]	!	!LO:TX:t=[segno]	!	!
=2||	=2||	=2||	=2||	=2||	=2||
8a/L	8eeL 8cc#\	.	1r	.	.
8a/J	8eeJ 8cc#\	.	.	.	.
8r	8r	.	.	.	.
8a/	8ee 8cc#\	.	.	.	.
8d#X/L	8aaL 8ff# 8ccn\	.	.	.	.
8d#/J	8aaJ 8ff# 8cc\	.	.	.	.
8r	8r	.	.	.	.
8ccn 8f# 8d#X/	8aa\	.	.	.	.
=3	=3	=3	=3	=3	=3
4b 4g 4e/	(>8gg\L	.	1r	.	.
.	16aa\L	.	.	.	.
.	16gg\JJ)	.	.	.	.
4a#X 4e 4c#/	(>8ff#\L	.	.	.	.
.	16ee\L	.	.	.	.
.	16ff#\JJ)	.	.	.	.
4b 4g 4e/	(>8gg\L	.	.	.	.
.	16aa\L	.	.	.	.
.	16gg\JJ)	.	.	.	.
4an 4d#X 4B#X/	(>8ff#\L	.	.	.	.
.	16gg\L	.	.	.	.
.	16ff#\JJ)	.	.	.	.
=4	=4	=4	=4	=4	=4
4a 4g 4e 4c#/	8ee\L	.	1r	.	.
.	16cc#X\L	.	.	.	.
.	16dd\JJ	.	.	.	.
8qqA	.	.	.	.	.
*^	*	*	*	*	*
!LO:TX:t=P:problem:all\right:global	!LO:TX:t=P:problem:all\right:global	!	!	!	!	!
8a/L	4A\	8.ff#\L	.	.	.	.
8g/J	.	.	.	.	.	.
.	.	16ee\Jk	.	.	.	.
8f#L 8d/	2ryy	8dd\L	.	.	.	.
8f#J 8d/	.	8dd\J	.	.	.	.
4r	.	8r	sf	.	.	.
.	.	8dd 8d/	.	.	.	.
!LO:CL:ed	!	!	!	!	!	!
*clefF4	*	*	*	*	*	*
=5	=5	=5	=5	=5	=5	=5
!	!	!	!LO:DY:b	!	!	!
8GGL 8GGG/	2rBBBByy	8dddL 8bb-X 8gg 8dd\	f	1r	.	.
8GGJ 8GGG/	.	8dddJ 8bb- 8gg 8dd\	.	.	.	.
!	!	!	!LO:DY:b	!	!	!
4r	.	8r	fp	.	.	.
!	!	!LO:N:vis=4	!	!	!	!
.	.	8dd 8d/	.	.	.	.
!LO:TX:t=P:problem:all\right:global	!	!	!	!	!	!
8dL 8A 8F#/	8D\L	4r	.	.	.	.
8dJ 8A 8F#/	8D\J	.	.	.	.	.
4r	4rCCyy	8r	.	.	.	.
!	!	!	!LO:DY:b:rj	!	!	!
.	.	8A/	p	.	.	.
*v	*v	*	*	*	*	*
=6	=6	=6	=6	=6	=6
4r	8G#X/L	.	1r	.	.
.	8A/	.	.	.	.
4G 4AA\	8.f#/	.	.	.	.
.	16e/Jk	.	.	.	.
8F#L 8D\	4d/	.	.	.	.
16AA\L	.	.	.	.	.
!	!LO:TX:b:i:t=Fine.	!	!	!	!
16FF#\JJ	.	.	.	.	.
4DD/	4r	.	.	.	.
!!LO:PB:g=original
==7	==7	==7	==7	==7	==7
!	!	!	!LO:TX:a:i:t=Pieśń	!	!
4d\	4a 4f#/	.	4a/	Gdy	Gdy
8d\L	8aL 8f#/	.	8a/	Cię	z o-
8d\J	8aJ 8f#/	.	8a/	nie	-czu
8c#\L	8bL 8g/	.	8b/	wi-	zni-
8d\J	8aJ 8f#/	.	8a/	-dzę,	-kniesz,
8r	8r	.	8r	.	.
8d\	8a 8f#/	.	8a/	nie	nie
=8	=8	=8	=8	=8	=8
*	*	*	*^	*	*
!	!	!	!LO:TX:a:t=P:problem:all\right:global	!	!	!
8D\L	8ddL 8f#/	.	8dd\	2rFyy	wzdy-	mo-
8d\J	8aJ 8f#/	.	8a/	.	-cham,	-gę,
4r	8r	.	8r	.	.	.
.	8f# 8d/	.	16a\	.	nie	ni
.	.	.	16a\	.	.	.
4G\	(>4a (<4c#/	.	4cc#\	4rFyy	pła-	ra-
4r	8g 8B/))	.	8b\	8rFyy	-czę	-zu
.	8r	.	16r	16rFyy	.	.
.	.	.	16b\	16rc	nie	.
*	*	*	*v	*v	*	*
=9	=9	=9	=9	=9	=9
4G 4GG/	4ee 4b 4e/	.	4ee\	tra-	w my-
4r	4r	.	16ee\LL	.	-śli
.	.	.	16dd\JJ	.	.
.	.	.	16cc#\LL	-cę	two-
.	.	.	16b\JJ	.	.
*2\right	*	*	*	*	*
2AA\	2c# 2G< 2E</	.	4b\	zmy-	-je-
.	.	.	16b/LL	.	.
.	.	.	16a/JJ	.	.
.	.	.	16g/LL	-słow	-go
.	.	.	16e/JJ	.	.
=10	=10	=10	=10	=10	=10
2rAAAyy	8c#<L 8G< 8E</	.	16d#X/LL	Kie-	od-
.	.	.	16e/JJ	.	.
.	8c#< 8G< 8E</	.	16g/LL	-dy	-no-
.	.	.	16f#/JJ	.	.
.	8c#< 8G< 8E</	.	16a/LL	Cię	-wić
.	.	.	16g/JJ	.	.
.	8c#<J 8G< 8E</	.	16b/LL	zo-	o-
.	.	.	16a/JJ	.	.
(<4AA 4DD\	(>4d< 4F#< 4D</	.	8.a/L	-ba-	-bra-
.	.	.	16dd/Jk	.	.
8AA\)	8A</)	.	8a/	-czę:	-zu;
8r	8ryy	.	8r	.	.
=11	=11	=11	=11	=11	=11
4d\	4a 4fn/	.	4a/	jed-	jed-
8d\L	8aL 8f/	.	8a/	-nak-	-nak-
8d\J	8aJ 8f/	.	8a/	-że,	-że,
8c#X\L	8b-XL 8g/	.	8b-X\	gdy	nie
8d\J	8aJ 8f/	.	8a/	cię	raz
!	!	!	!LO:N:vis=8	!	!
8r	8r	.	4r	.	.
8d\	8a 8f/	.	.	.	.
=12	=12	=12	=12	=12	=12
2D\	4a 4f# 4d/	.	8a/	dłu-	czu-
.	.	.	8a/	-go	-ię
.	4a 4f#X 4c#/	.	8dd\	nie	mi-
.	.	.	8a/	o-	-mo
4G\	4g 4B-X/	.	8ccn\	-glą-	chę-
.	.	.	8b-X\	-dam	-ci
4ryy	4ryy	.	4r	.	.
!!LO:LB:g=original
=13	=13	=13	=13	=13	=13
!	!LO:SIC:v:s=B-	!	!	!	!
2E\	[4.g (<4.cn 4.G-X/	.	4b-X\	cze-	że
.	.	.	8a/	-goś	on
.	8g] 8c#X/)	.	8g/	mi	jest
!	!LO:SIC:v:s=B-	!	!	!	!
4Fn\	4fn 4d 4B/	.	4.fn/	bra-	za-
4r	4r	.	.	.	.
.	.	.	8dd\	-knie,	-wsze
=14	=14	=14	=14	=14	=14
4r	8fn/	.	8dd\	Ko-	blis-
.	4e/	.	8ccn\	-goś	-ko
!LO:SIC:v:s=FFn	!	!	!	!	!
4FF#/	.	.	8g/	wi-	mey
.	8e-X/	.	8a/	-dzieć	pa-
[>4Fn\	4a 4e-/	.	4ccn\	żą-	-mię-
!	!LO:N:vis=8	!	!	!	!
8F] 8BB-X\	8b-X 8d/	.	8b-X\	-dam	-ci
8r	8r	.	8r	.	.
=15	=15	=15	=15	=15	=15
8F#\L	8a#XL 8f# 8c#/	.	4a#X/	i	i
8F#\J	8a#J 8f# 8c#/	.	.	.	.
4F#\	4a# 4f# 4c#/	.	8a#/	tę-	zno-
.	.	.	8a#/	-skniąc	-wu
8C#/L	8g#XL 8e#X 8c#/	.	4cc#\	so-	so-
8C#/J	8g#J 8e# 8c#/	.	.	.	.
4C#/	4g# 4e# 4c#/	.	8cc#\	-bie	-bie
.	.	.	8cc#\	za-	pow-
=16	=16	=16	=16	=16	=16
8A\L	8gnL 8en 8c#/	.	4cc#\	-Da-	-ta-
8A\J	8gJ 8e 8c#/	.	.	.	.
4A\	4g 4e 4c#/	.	8b\	-ię	-rzam
.	.	.	8cc#\	py-	py-
4D\	8f#L 8d/	.	4.ee\	-ta-	-ta-
.	16gL 16e/	.	.	.	.
.	16g#XJJ 16e#X/	.	.	.	.
4r	8aL 8f#/	.	.	.	.
.	8a#X/J	.	8dd\	-nie:	-nie:
=17	=17	=17	=17	=17	=17
2GG/	4b 4d/	.	4dd\	czy	czy
.	8aL 8c#/	.	8cc#\	to	to
.	8gJ 8B/	.	8b\	iest	iest
2D\	[>4f# [<4A/	.	4.a/	przy-	przy-
.	4f#] 4cn 4A/]	.	.	.	.
.	.	.	8a/	-jaźń	-jaźń
=18	=18	=18	=18	=18	=18
4D#X\	4f# 4B< 4A</	.	8.b\	czy	czy
.	.	.	16b\	to	to
4E\	4e 4B< 4G</	.	8a/	iest	iest
.	.	.	8g/	Ko-	Ko-
4AA#X\	4e 4c#< 4F#</	.	4.f#/	-cha-	-cha-
4BB\	4d 4F#</	.	.	.	.
.	.	.	8f#/	-nie	-nie
!!LO:LB:g=original
=19	=19	=19	=19	=19	=19
*	*^	*	*	*	*
1AA	8dL 8A< 8F#</	2rBByy	.	8f#/	czy	czy
.	8d/	.	.	8f#/	to	to
.	8e 8c#/	.	.	8g/	jest	jest
.	8e#XJ 8d 8B/	.	.	8g#X/	Ko-	Ko-
.	4.f#/	4c# 4A\	.	2a/	-cha-	-cha-
.	.	4c# 4G\	.	.	.	.
!	!LO:SIC:v:s=en	!	!	!	!	!
.	8e#/	.	.	.	.	.
*	*v	*v	*	*	*	*
=20	=20	=20	=20	=20	=20
8F# 8D\	8d/	.	4d/	-nie?	-nie?
8r	8r	.	.	.	.
*clefG2	*	*	*	*	*
8d/L	8ff#L 8dd\	.	4r	.	.
8d/J	8ff#J 8dd\	.	.	.	.
8g#X/L	8bbL 8ee 8dd#\	.	2r	.	.
8g#/J	8bbJ 8ff# 8ee\	.	.	.	.
8r	8r	.	.	.	.
8g#/	8bb 8ee 8dd#\	.	.	.	.
==	==	==	==	==	==
*-	*-	*-	*-	*-	*-
!!!system-decoration: {(s1)(s2,s3)}
!!!RDF**kern: > = above
!!!RDF**kern: < = below
!!!EED: Antoni Szymański
!!!EST: 2021-04-19
!!!ENC: Marcin Jachim
!!!END: 2021-04-01
